resources/images/statek.svg

<svg width="60" height="60" viewBox="0 0 60 60" fill="none" xmlns="http://www.w3.org/2000/svg">
<g clip-path="url(#clip0_1736_48)">
<g>
<g>
<path d="M47.0902 34.6075C47.0902 34.6075 39.52 29.9364 39.5105 29.9305C38.9657 29.5943 38.232 29.7716 37.8969 30.3125C37.561 30.8544 37.7393 31.5923 38.2789 31.9249C38.2789 31.9249 45.8539 36.5991 45.8586 36.6019C46.4031 36.9379 47.1363 36.765 47.4711 36.22C47.8059 35.6748 47.6353 34.9435 47.0902 34.6075Z" fill="#1F294C"/>
</g>
</g>
<g>
<g>
<path d="M34.9069 27.2944C34.1584 27.2943 33.5941 28.0068 33.7652 28.7353C33.8332 29.0254 34.0327 29.289 34.2954 29.4554C34.4758 29.5696 34.686 29.6382 34.9043 29.6382C35.3144 29.6382 35.6882 29.4309 35.9027 29.0818C36.3594 28.3381 35.7852 27.2946 34.9069 27.2944Z" fill="#1F294C"/>
</g>
</g>
<g>
<g>
<path d="M22.7721 30.2517C22.4415 29.7251 21.6794 29.555 21.1559 29.8857C21.1559 29.8857 13.6346 34.6285 13.6219 34.6365C13.0799 34.9782 12.9146 35.7104 13.2559 36.2519C13.4611 36.5775 13.8571 36.7684 14.2491 36.7795C14.4696 36.7857 14.6889 36.7349 14.8723 36.6193C14.8723 36.6193 22.401 31.8707 22.4063 31.8673C22.9481 31.5256 23.1127 30.794 22.7721 30.2517Z" fill="#1F294C"/>
</g>
</g>
<g>
<g>
<path d="M25.7478 27.2046C25.2036 27.2046 24.7267 27.5871 24.6064 28.1172C24.4424 28.8395 25.0142 29.5483 25.7501 29.5483C26.2933 29.5483 26.7728 29.166 26.8927 28.6353C27.0569 27.9088 26.4904 27.2046 25.7478 27.2046Z" fill="#1F294C"/>
</g>
</g>
<g>
<g>
<path d="M59.7125 53.3746C59.2878 52.8862 58.5476 52.8346 58.0592 53.2593C56.8096 54.3457 55.6532 55.4721 54.0137 55.9253C52.1911 56.429 50.4589 56.0315 48.8094 55.2067L54.9124 34.6727C55.0643 34.1618 54.8521 33.6128 54.3964 33.3366L48.75 29.9153V19.9248C48.75 19.2777 48.2253 18.7529 47.5781 18.7529H45.2344V15.2373C45.2344 14.5902 44.7097 14.0654 44.0625 14.0654H40.3711V10.5498C40.3711 9.90268 39.8464 9.37791 39.1992 9.37791H33.5156V1.1748C33.5156 0.527694 32.991 0.00292969 32.3438 0.00292969H27.6563C27.009 0.00292969 26.4844 0.527694 26.4844 1.1748V9.37791H20.8008C20.1536 9.37791 19.6289 9.90268 19.6289 10.5498V14.0654H15.9375C15.2903 14.0654 14.7657 14.5902 14.7657 15.2373V18.7529H12.4219C11.7747 18.7529 11.25 19.2777 11.25 19.9248V29.9153L5.60372 33.3365C5.14786 33.6127 4.93587 34.1617 5.08775 34.6726C5.08775 34.6726 11.1757 55.1557 11.1783 55.1646C11.0744 54.8149 9.19915 54.5847 8.86762 54.5418C5.45548 54.1002 2.86084 55.8095 0.402952 57.9467C-0.0854849 58.3713 -0.137047 59.1114 0.287522 59.5998C0.692873 60.066 1.44721 60.1443 1.94068 59.7152C4.47287 57.514 7.32767 55.836 10.678 57.5114C13.709 59.0268 16.8463 59.6766 20.0032 58.0153C22.5488 56.6754 25.0052 55.5184 27.8466 56.8712L30.7677 58.2622C33.2668 59.4524 36.1201 59.425 38.5957 58.187C40.1212 57.4242 41.6717 56.4092 43.4143 56.2894C45.1224 56.1721 46.7729 56.8081 48.2737 57.5591C50.2564 58.5505 52.5775 58.7486 54.7066 58.1417C56.6677 57.5826 58.095 56.3336 59.5969 55.0276C60.0855 54.6031 60.1371 53.863 59.7125 53.3746ZM46.4062 21.0966V28.4953L34.1955 21.0966H46.4062ZM28.8281 2.34668H31.1719V9.37791H28.8281V2.34668ZM21.9727 11.7217H38.0273V14.0654H21.9727V11.7217ZM13.5938 21.0966H25.8045L13.5938 28.4953V21.0966ZM28.8281 54.7429C28.8284 54.5346 27.1576 54.1505 26.9391 54.1031C24.8995 53.6617 22.71 53.942 20.861 54.9152C19.5195 55.6213 18.2251 56.445 16.6908 56.6426C16.688 56.6429 16.6852 56.6433 16.6824 56.6436C15.7859 56.7526 14.8683 56.6867 14.0007 56.4336L7.59204 34.8722L28.8281 22.0051C28.8281 22.0051 28.8281 54.7416 28.8281 54.7429ZM17.1094 18.7529V16.4091H42.8906V18.7529H17.1094ZM46.6432 54.2676C46.6562 53.905 43.3574 53.9083 43.1363 53.9316C41.1022 54.1467 39.3425 55.1933 37.5475 56.0909C35.4268 57.1512 33.2448 56.8464 31.1719 55.8588V22.0051L52.408 34.8722L46.6432 54.2676Z" fill="#1F294C"/>
</g>
</g>
</g>
<defs>
<clipPath>
<rect width="60" height="60" fill="white"/>
</clipPath>
</defs>
</svg>

<svg width="60" height="60" fill="none" xmlns="http://www.w3.org/2000/svg"><g clip-path="url(#clip0_1736_48)"><path d="m47.09 34.608-7.58-4.677a1.185 1.185 0 0 0-1.613.381 1.186 1.186 0 0 0 .382 1.613l7.58 4.677a1.18 1.18 0 0 0 1.612-.382 1.181 1.181 0 0 0-.38-1.612ZM34.907 27.294a1.18 1.18 0 0 0-1.142 1.441c.068.29.268.554.53.72.18.115.391.183.61.183.41 0 .783-.207.998-.556.456-.744-.118-1.787-.996-1.788ZM22.772 30.252c-.33-.527-1.093-.697-1.616-.366 0 0-7.521 4.743-7.534 4.75a1.18 1.18 0 0 0-.366 1.616c.205.325.601.516.993.527.22.007.44-.044.623-.16l7.534-4.752a1.18 1.18 0 0 0 .366-1.615ZM25.748 27.205c-.544 0-1.021.382-1.142.912a1.186 1.186 0 0 0 1.144 1.431c.543 0 1.023-.382 1.143-.913a1.181 1.181 0 0 0-1.145-1.43Z" fill="#1F294C"/><path d="M59.712 53.375a1.172 1.172 0 0 0-1.653-.116c-1.25 1.087-2.406 2.213-4.045 2.666-1.823.504-3.555.107-5.205-.718l6.103-20.534c.152-.511-.06-1.06-.516-1.336l-5.646-3.422v-9.99c0-.647-.525-1.172-1.172-1.172h-2.344v-3.516c0-.647-.524-1.172-1.172-1.172h-3.69V10.55c0-.647-.526-1.172-1.173-1.172h-5.683V1.175c0-.647-.525-1.172-1.172-1.172h-4.688c-.647 0-1.172.525-1.172 1.172v8.203h-5.683c-.647 0-1.172.525-1.172 1.172v3.515h-3.692c-.647 0-1.171.525-1.171 1.172v3.516h-2.344c-.647 0-1.172.525-1.172 1.172v9.99l-5.646 3.422a1.172 1.172 0 0 0-.516 1.336l6.09 20.492c-.104-.35-1.979-.58-2.31-.623C5.455 54.1 2.86 55.809.403 57.947A1.172 1.172 0 0 0 .288 59.6c.405.466 1.16.544 1.653.115 2.532-2.201 5.387-3.879 8.737-2.204 3.031 1.516 6.168 2.166 9.325.504 2.546-1.34 5.002-2.497 7.844-1.144l2.92 1.391a8.868 8.868 0 0 0 7.829-.075c1.525-.763 3.076-1.778 4.818-1.898 1.708-.117 3.359.52 4.86 1.27a8.966 8.966 0 0 0 6.433.583c1.96-.56 3.388-1.808 4.89-3.114.489-.425.54-1.165.115-1.653ZM46.407 21.097v7.398l-12.21-7.398h12.21ZM28.828 2.347h2.344v7.03h-2.344v-7.03Zm-6.855 9.375h16.054v2.343H21.973v-2.343Zm-8.38 9.375h12.212l-12.211 7.398v-7.398Zm15.235 33.646c0-.208-1.67-.593-1.889-.64-2.04-.441-4.229-.161-6.078.812-1.341.706-2.636 1.53-4.17 1.728h-.009a6.708 6.708 0 0 1-2.681-.21l-6.409-21.56 21.236-12.868v32.738ZM17.11 18.753v-2.344h25.782v2.344H17.109Zm29.534 35.515c.013-.363-3.286-.36-3.507-.336-2.034.215-3.794 1.261-5.589 2.159-2.12 1.06-4.302.755-6.375-.232V22.005l21.236 12.867-5.765 19.396Z" fill="#1F294C"/></g></svg>
